icons/4_Outdated/Zapier v1.svg

<svg width="1024" height="1024" fill="none" xmlns="http://www.w3.org/2000/svg"><g clip-path="url(#a)"><path d="M512 1024c282.77 0 512-229.23 512-512S794.77 0 512 0 0 229.23 0 512s229.23 512 512 512Z" fill="#F8C18C"/><path d="M576 512.11a153.097 153.097 0 0 1-9.83 54 153.204 153.204 0 0 1-54.06 9.89h-.22a153.187 153.187 0 0 1-54-9.83 153.155 153.155 0 0 1-9.89-54.06v-.22a153.326 153.326 0 0 1 9.83-54 153.133 153.133 0 0 1 54.06-9.89h.22a153.085 153.085 0 0 1 54.06 9.84 153.075 153.075 0 0 1 9.83 54v.27Zm188.44-42.78H615l105.67-105.66A257.188 257.188 0 0 0 693 331a257.321 257.321 0 0 0-32.67-27.63L554.67 409V259.56a257.579 257.579 0 0 0-42.53-3.56h-.27a257.579 257.579 0 0 0-42.53 3.56V409L363.67 303.33A257.34 257.34 0 0 0 331 331a257.212 257.212 0 0 0-27.62 32.65L409 469.33H259.56S256 497.4 256 511.91v.18a257.746 257.746 0 0 0 3.56 42.58H409L303.33 660.33a257.455 257.455 0 0 0 60.34 60.34L469.33 615v149.44a257.758 257.758 0 0 0 42.49 3.56h.37a257.846 257.846 0 0 0 42.48-3.56V615l105.66 105.67A257.34 257.34 0 0 0 693 693a257.481 257.481 0 0 0 27.64-32.67L615 554.67h149.44a257.758 257.758 0 0 0 3.56-42.49v-.37a257.846 257.846 0 0 0-3.56-42.48Z" fill="#fff"/></g><defs><clipPath id="a"><path fill="#fff" d="M0 0h1024v1024H0z"/></clipPath></defs></svg>

<svg width="1024" height="1024" viewBox="0 0 1024 1024" fill="none" xmlns="http://www.w3.org/2000/svg">
<g clip-path="url(#clip0_3_731)">
<path d="M512 1024C794.77 1024 1024 794.77 1024 512C1024 229.23 794.77 0 512 0C229.23 0 0 229.23 0 512C0 794.77 229.23 1024 512 1024Z" fill="#F8C18C"/>
<path d="M576 512.11C576.003 530.555 572.673 548.849 566.17 566.11C548.893 572.638 530.579 575.989 512.11 576H511.89C493.445 576.001 475.151 572.671 457.89 566.17C451.361 548.894 448.01 530.579 448 512.11V511.89C448.002 493.445 451.332 475.152 457.83 457.89C475.106 451.36 493.421 448.01 511.89 448H512.11C530.576 447.993 548.891 451.326 566.17 457.84C572.673 475.101 576.004 493.395 576 511.84V512.06V512.11ZM764.44 469.33H615L720.67 363.67C712.371 352.03 703.115 341.102 693 331C682.896 320.899 671.968 311.657 660.33 303.37L554.67 409V259.56C540.616 257.199 526.391 256.008 512.14 256H511.87C497.619 256.008 483.394 257.199 469.34 259.56V409L363.67 303.33C352.03 311.63 341.103 320.885 331 331C320.903 341.098 311.664 352.019 303.38 363.65L409 469.33H259.56C259.56 469.33 256 497.4 256 511.91V512.09C256.006 526.357 257.197 540.6 259.56 554.67H409L303.33 660.33C319.947 683.66 340.34 704.053 363.67 720.67L469.33 615V764.44C483.371 766.798 497.583 767.989 511.82 768H512.19C526.424 767.988 540.633 766.797 554.67 764.44V615L660.33 720.67C671.97 712.37 682.897 703.115 693 693C703.104 682.896 712.349 671.968 720.64 660.33L615 554.67H764.44C766.798 540.629 767.989 526.417 768 512.18V511.81C767.988 497.576 766.797 483.367 764.44 469.33Z" fill="white"/>
</g>
<defs>
<clipPath id="clip0_3_731">
<rect width="1024" height="1024" fill="white"/>
</clipPath>
</defs>
</svg>
